svg/k8s.svg

<?xml version="1.0" encoding="UTF-8"?>
<svg xmlns="http://www.w3.org/2000/svg" xmlns:xlink="http://www.w3.org/1999/xlink" width="33" height="32" viewBox="0 0 33 32">
<path fill-rule="nonzero" fill="rgb(19.607843%, 42.352941%, 89.803922%)" fill-opacity="1" d="M 15.898438 0 C 15.613281 0.0195312 15.332031 0.09375 15.074219 0.21875 L 3.933594 5.523438 C 3.351562 5.800781 2.925781 6.328125 2.78125 6.957031 L 0.0546875 18.894531 C -0.078125 19.457031 0.03125 20.046875 0.355469 20.523438 C 0.394531 20.578125 0.433594 20.636719 0.472656 20.691406 L 8.171875 30.261719 C 8.578125 30.761719 9.191406 31.046875 9.835938 31.046875 L 22.183594 31.046875 C 22.828125 31.046875 23.441406 30.746094 23.847656 30.253906 L 31.539062 20.679688 C 31.945312 20.179688 32.09375 19.519531 31.941406 18.894531 L 29.195312 6.953125 C 29.046875 6.328125 28.625 5.800781 28.046875 5.523438 L 16.921875 0.21875 C 16.601562 0.0625 16.246094 -0.0117188 15.886719 0 Z M 15.898438 0 "/>
<path fill-rule="nonzero" fill="rgb(100%, 100%, 100%)" fill-opacity="1" stroke-width="0.11" stroke-linecap="round" stroke-linejoin="round" stroke="rgb(100%, 100%, 100%)" stroke-opacity="1" stroke-miterlimit="4" d="M 16 4.066406 C 15.617188 4.09375 15.324219 4.425781 15.34375 4.808594 L 15.34375 4.996094 C 15.363281 5.207031 15.394531 5.417969 15.4375 5.628906 C 15.496094 6.027344 15.519531 6.433594 15.503906 6.835938 C 15.460938 6.96875 15.386719 7.089844 15.285156 7.183594 L 15.269531 7.464844 C 13.152344 7.636719 11.171875 8.585938 9.714844 10.132812 L 9.472656 9.964844 C 9.339844 10.003906 9.199219 9.988281 9.078125 9.925781 C 8.753906 9.683594 8.453125 9.414062 8.183594 9.113281 C 8.046875 8.953125 7.898438 8.796875 7.746094 8.648438 L 7.597656 8.53125 C 7.464844 8.425781 7.304688 8.363281 7.132812 8.355469 C 6.929688 8.347656 6.730469 8.433594 6.601562 8.59375 C 6.382812 8.910156 6.453125 9.347656 6.765625 9.574219 L 6.90625 9.675781 C 7.082031 9.792969 7.265625 9.902344 7.457031 10 C 7.8125 10.195312 8.148438 10.429688 8.453125 10.699219 C 8.535156 10.8125 8.582031 10.945312 8.589844 11.082031 L 8.804688 11.28125 C 7.628906 13.050781 7.144531 15.1875 7.449219 17.289062 L 7.167969 17.367188 C 7.097656 17.484375 7 17.585938 6.882812 17.65625 C 6.492188 17.757812 6.089844 17.824219 5.6875 17.851562 C 5.472656 17.855469 5.257812 17.875 5.046875 17.902344 L 4.871094 17.941406 L 4.851562 17.941406 C 4.601562 17.976562 4.390625 18.148438 4.308594 18.390625 C 4.226562 18.628906 4.289062 18.894531 4.464844 19.074219 C 4.644531 19.253906 4.90625 19.316406 5.148438 19.238281 L 5.160156 19.238281 L 5.339844 19.21875 C 5.542969 19.15625 5.746094 19.085938 5.941406 19 C 6.316406 18.851562 6.703125 18.738281 7.101562 18.660156 C 7.238281 18.667969 7.371094 18.714844 7.484375 18.796875 L 7.78125 18.746094 C 8.429688 20.761719 9.796875 22.472656 11.621094 23.546875 L 11.5 23.804688 C 11.554688 23.921875 11.574219 24.050781 11.558594 24.179688 C 11.394531 24.5625 11.191406 24.925781 10.957031 25.269531 C 10.824219 25.441406 10.707031 25.621094 10.597656 25.804688 L 10.515625 25.984375 C 10.386719 26.203125 10.394531 26.472656 10.53125 26.683594 C 10.667969 26.894531 10.914062 27.011719 11.164062 26.984375 C 11.414062 26.953125 11.628906 26.789062 11.71875 26.550781 L 11.800781 26.382812 C 11.875 26.183594 11.9375 25.984375 11.992188 25.78125 C 12.167969 25.34375 12.265625 24.875 12.507812 24.585938 C 12.585938 24.511719 12.6875 24.464844 12.792969 24.445312 L 12.941406 24.171875 C 14.917969 24.933594 17.105469 24.9375 19.085938 24.1875 L 19.222656 24.445312 C 19.355469 24.464844 19.480469 24.539062 19.5625 24.648438 C 19.75 25.007812 19.902344 25.382812 20.015625 25.769531 C 20.066406 25.976562 20.132812 26.179688 20.210938 26.378906 L 20.292969 26.550781 C 20.382812 26.785156 20.597656 26.949219 20.847656 26.980469 C 21.097656 27.007812 21.339844 26.890625 21.480469 26.679688 C 21.617188 26.46875 21.625 26.195312 21.496094 25.980469 L 21.410156 25.800781 C 21.300781 25.617188 21.179688 25.441406 21.050781 25.269531 C 20.820312 24.933594 20.621094 24.578125 20.453125 24.210938 C 20.417969 24.074219 20.441406 23.929688 20.519531 23.8125 C 20.472656 23.726562 20.4375 23.636719 20.410156 23.542969 C 22.230469 22.457031 23.589844 20.742188 24.230469 18.722656 L 24.515625 18.773438 C 24.613281 18.679688 24.746094 18.628906 24.882812 18.636719 C 25.28125 18.71875 25.671875 18.832031 26.050781 18.976562 C 26.246094 19.074219 26.445312 19.140625 26.648438 19.207031 C 26.695312 19.21875 26.765625 19.230469 26.820312 19.242188 L 26.832031 19.242188 C 27.074219 19.320312 27.335938 19.257812 27.515625 19.078125 C 27.691406 18.898438 27.75 18.632812 27.667969 18.394531 C 27.585938 18.15625 27.378906 17.980469 27.128906 17.945312 L 26.933594 17.898438 C 26.722656 17.871094 26.511719 17.855469 26.296875 17.851562 C 25.894531 17.824219 25.492188 17.757812 25.101562 17.652344 C 24.980469 17.585938 24.878906 17.484375 24.8125 17.363281 L 24.542969 17.285156 C 24.832031 15.183594 24.335938 13.050781 23.15625 11.292969 L 23.394531 11.074219 C 23.382812 10.9375 23.429688 10.800781 23.519531 10.699219 C 23.824219 10.433594 24.15625 10.199219 24.507812 10 C 24.699219 9.90625 24.882812 9.796875 25.058594 9.679688 L 25.207031 9.5625 C 25.425781 9.425781 25.546875 9.175781 25.519531 8.917969 C 25.488281 8.660156 25.3125 8.445312 25.070312 8.359375 C 24.828125 8.273438 24.554688 8.335938 24.375 8.519531 L 24.230469 8.636719 C 24.074219 8.785156 23.929688 8.9375 23.792969 9.101562 C 23.527344 9.402344 23.234375 9.679688 22.917969 9.925781 C 22.789062 9.976562 22.652344 9.992188 22.515625 9.96875 L 22.261719 10.148438 C 20.800781 8.617188 18.835938 7.667969 16.726562 7.480469 C 16.726562 7.378906 16.714844 7.230469 16.714844 7.183594 C 16.601562 7.105469 16.523438 6.988281 16.496094 6.851562 C 16.476562 6.449219 16.503906 6.042969 16.570312 5.644531 C 16.613281 5.445312 16.644531 5.226562 16.664062 5.011719 L 16.664062 4.8125 C 16.679688 4.429688 16.390625 4.101562 16.007812 4.070312 Z M 15.164062 9.230469 L 14.964844 12.722656 L 14.949219 12.722656 C 14.9375 12.9375 14.8125 13.132812 14.617188 13.226562 C 14.425781 13.328125 14.191406 13.308594 14.019531 13.175781 L 11.15625 11.144531 C 12.242188 10.078125 13.652344 9.402344 15.164062 9.230469 M 16.832031 9.230469 C 18.339844 9.417969 19.746094 10.09375 20.832031 11.15625 L 17.996094 13.171875 C 17.820312 13.3125 17.582031 13.339844 17.378906 13.242188 C 17.175781 13.144531 17.046875 12.941406 17.042969 12.71875 Z M 10.113281 12.457031 L 12.734375 14.796875 L 12.734375 14.8125 C 12.894531 14.957031 12.964844 15.175781 12.914062 15.382812 C 12.871094 15.59375 12.710938 15.761719 12.503906 15.820312 L 12.503906 15.828125 L 9.140625 16.796875 C 8.972656 15.28125 9.316406 13.753906 10.117188 12.457031 Z M 21.863281 12.457031 C 22.660156 13.753906 23.011719 15.273438 22.867188 16.785156 L 19.5 15.816406 L 19.5 15.800781 C 19.289062 15.746094 19.128906 15.578125 19.082031 15.367188 C 19.035156 15.15625 19.105469 14.933594 19.269531 14.792969 L 21.871094 12.464844 Z M 15.460938 14.976562 L 16.535156 14.976562 L 17.1875 15.808594 L 16.953125 16.847656 L 15.988281 17.3125 L 15.023438 16.847656 L 14.796875 15.808594 Z M 18.894531 17.816406 C 18.941406 17.808594 18.984375 17.808594 19.03125 17.816406 L 22.496094 18.398438 C 21.992188 19.839844 21.015625 21.070312 19.722656 21.890625 L 18.382812 18.648438 C 18.308594 18.472656 18.324219 18.269531 18.425781 18.109375 C 18.523438 17.945312 18.699219 17.839844 18.890625 17.832031 Z M 13.074219 17.832031 C 13.269531 17.835938 13.449219 17.9375 13.558594 18.097656 C 13.664062 18.261719 13.683594 18.46875 13.605469 18.648438 L 13.605469 18.660156 L 12.273438 21.878906 C 11 21.058594 10.03125 19.84375 9.515625 18.421875 L 12.953125 17.839844 C 12.992188 17.835938 13.027344 17.835938 13.066406 17.839844 Z M 15.976562 19.230469 C 16.199219 19.222656 16.410156 19.34375 16.515625 19.539062 L 16.527344 19.539062 L 18.222656 22.59375 L 17.542969 22.792969 C 16.296875 23.078125 14.996094 23.011719 13.785156 22.601562 L 15.488281 19.542969 C 15.59375 19.363281 15.78125 19.253906 15.988281 19.25 Z M 15.976562 19.230469 "/>
</svg>

<svg role="img" viewBox="0 0 33 32" xmlns="http://www.w3.org/2000/svg"><path d="M15.898 0c-.285.02-.566.094-.824.219L3.934 5.523A2.11 2.11 0 0 0 2.78 6.957L.055 18.895a2.05 2.05 0 0 0 .3 1.628c.04.055.079.114.118.168l7.699 9.57c.406.5 1.02.786 1.664.786h12.348c.644 0 1.257-.3 1.664-.793l7.691-9.574c.406-.5.555-1.16.402-1.785L29.195 6.953a2.13 2.13 0 0 0-1.148-1.43L16.922.22A2.2 2.2 0 0 0 15.887 0Zm0 0" fill="rgb(19.607843%, 42.352942%, 89.803922%)"/><path d="M16 4.066a.71.71 0 0 0-.656.743v.187q.029.316.094.633c.058.398.082.805.066 1.207a.8.8 0 0 1-.219.348l-.015.28a8.6 8.6 0 0 0-5.555 2.669l-.242-.168a.53.53 0 0 1-.395-.04 6 6 0 0 1-.894-.812 7 7 0 0 0-.438-.465l-.148-.117a.8.8 0 0 0-.465-.176.65.65 0 0 0-.531.239.71.71 0 0 0 .164.98l.14.102q.264.176.551.324c.356.195.691.43.996.7a.7.7 0 0 1 .137.382l.215.2a8.62 8.62 0 0 0-1.356 6.007l-.281.078a.84.84 0 0 1-.285.29c-.39.1-.793.167-1.195.195a6 6 0 0 0-.641.05l-.176.04h-.02a.67.67 0 0 0-.386 1.132.67.67 0 0 0 .683.164h.012l.18-.02a5 5 0 0 0 .6-.218 6.6 6.6 0 0 1 1.16-.34c.137.008.27.055.383.137l.297-.05a8.65 8.65 0 0 0 3.84 4.8l-.121.258a.7.7 0 0 1 .059.375 6.4 6.4 0 0 1-.602 1.09c-.133.171-.25.351-.36.535l-.081.18a.67.67 0 0 0 .015.699.67.67 0 0 0 1.188-.133l.082-.168q.11-.299.191-.602c.176-.437.274-.906.516-1.195a.55.55 0 0 1 .285-.14l.148-.274a8.6 8.6 0 0 0 6.145.015l.137.258c.132.02.257.094.34.203q.282.54.453 1.122.077.31.195.609l.082.172c.09.234.305.398.555.43.25.027.492-.09.632-.301a.66.66 0 0 0 .016-.7l-.086-.18q-.165-.274-.36-.53a7 7 0 0 1-.597-1.06.5.5 0 0 1 .067-.398 1.4 1.4 0 0 1-.11-.269 8.66 8.66 0 0 0 3.82-4.82l.286.05a.52.52 0 0 1 .367-.136q.598.123 1.168.34c.195.097.394.164.597.23.047.012.118.023.172.035h.012a.67.67 0 0 0 .684-.164.672.672 0 0 0-.387-1.133l-.195-.047a6 6 0 0 0-.637-.046 6 6 0 0 1-1.195-.2.74.74 0 0 1-.29-.289l-.269-.078a8.64 8.64 0 0 0-1.387-5.992l.239-.219a.5.5 0 0 1 .125-.375c.304-.265.636-.5.988-.699q.287-.143.55-.32l.149-.117a.68.68 0 0 0 .313-.645.68.68 0 0 0-.45-.559.66.66 0 0 0-.695.16l-.145.118c-.156.148-.3.3-.437.465-.266.3-.559.578-.875.824a.75.75 0 0 1-.402.043l-.254.18a8.72 8.72 0 0 0-5.535-2.669c0-.101-.012-.25-.012-.296a.53.53 0 0 1-.219-.332c-.02-.403.008-.809.074-1.207.043-.2.075-.418.094-.633v-.2a.71.71 0 0 0-.656-.742Zm-.836 5.164-.2 3.493h-.015a.59.59 0 0 1-.332.504.55.55 0 0 1-.597-.051l-2.864-2.031a6.82 6.82 0 0 1 4.008-1.915m1.668 0a6.95 6.95 0 0 1 4 1.926l-2.836 2.016a.58.58 0 0 1-.617.07.59.59 0 0 1-.336-.523Zm-6.719 3.227 2.621 2.34v.015a.591.591 0 0 1-.23 1.008v.008l-3.363.969a6.85 6.85 0 0 1 .976-4.34Zm11.75 0a7 7 0 0 1 1.004 4.328l-3.367-.969v-.015a.58.58 0 0 1-.418-.434.59.59 0 0 1 .188-.574l2.601-2.328Zm-6.402 2.52h1.074l.652.832-.234 1.039-.965.465-.965-.465-.226-1.04Zm3.434 2.84a.4.4 0 0 1 .136 0l3.465.581a6.8 6.8 0 0 1-2.773 3.493l-1.34-3.243a.59.59 0 0 1 .043-.539.57.57 0 0 1 .465-.277Zm-5.82.015a.587.587 0 0 1 .531.816v.012l-1.333 3.219a6.9 6.9 0 0 1-2.757-3.457l3.437-.582a.6.6 0 0 1 .113 0Zm2.902 1.398a.59.59 0 0 1 .539.31h.011l1.696 3.054-.68.199a6.9 6.9 0 0 1-3.758-.191l1.703-3.059a.59.59 0 0 1 .5-.293Zm0 0" fill="rgb(100%, 100%, 100%)" stroke="rgb(100%, 100%, 100%)" stroke-linecap="round" stroke-linejoin="round" stroke-width=".11"/></svg>
